images/loading.svg

<?xml version="1.0" standalone="no"?><!DOCTYPE svg PUBLIC "-//W3C//DTD SVG 1.1//EN" "http://www.w3.org/Graphics/SVG/1.1/DTD/svg11.dtd"><svg class="icon" width="200px" height="141.73px" viewBox="0 0 1445 1024" version="1.1" xmlns="http://www.w3.org/2000/svg"><path d="M0 0m162.032324 0l972.193945 0q162.032324 0 162.032324 162.032324l0 594.118522q0 162.032324-162.032324 162.032324l-972.193945 0q-162.032324 0-162.032324-162.032324l0-594.118522q0-162.032324 162.032324-162.032324Z" fill="#F2EFDC" /><path d="M1033.226121 633.00628a54.010775 54.010775 0 1 1-67.513469 84.256808l-232.246331-185.797065-128.005536 128.005536a54.010775 54.010775 0 0 1-71.834331 3.780755L296.519153 473.674494 0 702.140071v-134.486829l264.112688-205.240944a54.010775 54.010775 0 0 1 66.973361 0l232.246331 185.797065 128.005537-128.005536a54.010775 54.010775 0 0 1 71.83433-3.780754zM972.193945 135.026937A135.026937 135.026937 0 1 0 1107.220882 270.053874 135.026937 135.026937 0 0 0 972.193945 135.026937z" fill="#CECBBC" /><path d="M790.177634 389.957794a54.010775 54.010775 0 0 0-71.83433 3.780754l-128.005536 128.005536-232.786439-185.797065a54.010775 54.010775 0 0 0-66.973361 0L0 561.712057v136.64726l324.064648-251.69021 236.567194 189.577819a54.010775 54.010775 0 0 0 71.83433-3.780754l128.005536-128.005536 232.246331 185.797065a54.010775 54.010775 0 1 0 67.513469-84.256809z" fill="#494138" /><path d="M999.199332 243.048486m-135.026936 0a135.026937 135.026937 0 1 0 270.053873 0 135.026937 135.026937 0 1 0-270.053873 0Z" fill="#F9CF00" /></svg>

<svg class="icon" width="200" height="141.73" viewBox="0 0 1445 1024" xmlns="http://www.w3.org/2000/svg"><path d="M162.032 0h972.194q162.033 0 162.033 162.032v594.119q0 162.032-162.033 162.032H162.032Q0 918.183 0 756.151V162.032Q0 0 162.032 0z" fill="#F2EFDC"/><path d="M1033.226 633.006a54.01 54.01 0 1 1-67.513 84.257L733.466 531.466 605.461 659.472a54.01 54.01 0 0 1-71.835 3.78L296.52 473.674 0 702.14V567.653l264.113-205.24a54.01 54.01 0 0 1 66.973 0l232.246 185.796 128.006-128.005a54.01 54.01 0 0 1 71.834-3.78zm-61.032-497.98a135.027 135.027 0 1 0 135.027 135.028 135.027 135.027 0 0 0-135.027-135.027z" fill="#CECBBC"/><path d="M790.178 389.958a54.01 54.01 0 0 0-71.835 3.78L590.338 521.745 357.55 335.947a54.01 54.01 0 0 0-66.973 0L0 561.712V698.36l324.065-251.69 236.567 189.578a54.01 54.01 0 0 0 71.834-3.78L760.472 504.46l232.246 185.797A54.01 54.01 0 1 0 1060.232 606z" fill="#494138"/><path d="M864.172 243.048a135.027 135.027 0 1 0 270.054 0 135.027 135.027 0 1 0-270.054 0z" fill="#F9CF00"/></svg>
